flaticon/pins-and-locations/pin-11.svg

<svg xmlns="http://www.w3.org/2000/svg" width="32" height="32" viewBox="0 0 24 24">
    <path d="M 18.398438 6.398438 C 18.398438 2.878906 15.519531 0 12 0 C 8.480469 0 5.601562 2.878906 5.601562 6.398438 C 5.601562 9.242188 7.480469 11.667969 10.058594 12.496094 L 10.800781 22.839844 C 10.839844 23.519531 11.359375 24 12 24 C 12.640625 24 13.160156 23.519531 13.199219 22.839844 L 13.980469 12.484375 C 16.539062 11.644531 18.398438 9.230469 18.398438 6.398438 Z M 12.398438 22.761719 C 12.398438 23 12.238281 23.199219 12 23.199219 C 11.761719 23.199219 11.601562 22.960938 11.601562 22.761719 L 10.878906 12.71875 C 11.34375 12.796875 11.835938 12.824219 12.324219 12.792969 C 12.59375 12.777344 12.859375 12.746094 13.117188 12.703125 Z M 12 12 C 8.921875 12 6.398438 9.480469 6.398438 6.398438 C 6.398438 3.320312 8.921875 0.800781 12 0.800781 C 15.078125 0.800781 17.601562 3.320312 17.601562 6.398438 C 17.601562 9.480469 15.078125 12 12 12 Z M 12 12"/>
    <path d="M 14.441406 3.039062 C 14.039062 2.640625 13.441406 2.640625 13.039062 3.039062 L 9.480469 6.601562 C 9.398438 6.679688 9.359375 6.71875 9.359375 6.800781 L 8.800781 9.078125 C 8.761719 9.238281 8.800781 9.359375 8.921875 9.480469 C 9 9.558594 9.078125 9.601562 9.199219 9.601562 C 9.238281 9.601562 9.28125 9.558594 9.28125 9.558594 L 11.558594 9 C 11.640625 8.960938 11.71875 8.921875 11.761719 8.878906 L 15.320312 5.320312 C 15.71875 4.921875 15.71875 4.320312 15.320312 3.921875 Z M 11.28125 8.28125 L 9.761719 8.640625 L 10.121094 7.121094 L 12.300781 4.941406 L 13.460938 6.101562 Z M 14.761719 4.800781 L 14.019531 5.539062 L 12.859375 4.378906 L 13.601562 3.640625 C 13.679688 3.601562 13.800781 3.601562 13.878906 3.679688 L 14.761719 4.558594 C 14.839844 4.601562 14.839844 4.71875 14.761719 4.800781 Z M 14.761719 4.800781"/>
</svg>

<svg xmlns="http://www.w3.org/2000/svg" width="32" height="32" viewBox="0 0 24 24">
    <path d="M18.398 6.398C18.398 2.878 15.52 0 12 0 8.48 0 5.602 2.879 5.602 6.398c0 2.844 1.878 5.27 4.457 6.098L10.8 22.84c.039.68.558 1.16 1.199 1.16.64 0 1.16-.48 1.2-1.16l.78-10.356c2.56-.84 4.418-3.254 4.418-6.086zm-6 16.364c0 .238-.16.437-.398.437-.238 0-.398-.238-.398-.437l-.723-10.043c.465.078.957.105 1.445.074.27-.016.535-.047.793-.09zM12 12c-3.078 0-5.602-2.52-5.602-5.602C6.398 3.32 8.922.801 12 .801c3.078 0 5.602 2.52 5.602 5.597C17.602 9.48 15.078 12 12 12zm0 0"/>
    <path d="M14.441 3.04a.972.972 0 0 0-1.402 0L9.48 6.601c-.082.078-.12.117-.12.199L8.8 9.078c-.038.16 0 .281.122.402a.36.36 0 0 0 .277.122c.04 0 .082-.043.082-.043L11.56 9a.795.795 0 0 0 .203-.121L15.32 5.32a.967.967 0 0 0 0-1.398zm-3.16 5.241l-1.52.36.36-1.52 2.18-2.18 1.16 1.16zm3.48-3.48l-.741.738-1.16-1.16.742-.738c.078-.04.199-.04.277.039l.883.879c.078.043.078.16 0 .242zm0 0"/>
</svg>
